X: 15207
T: Gin Ye Kiss My Wife, I'll Tell The Minister
R: reel
M: 4/4
K: Aminor
EA A<A B2 E2|cd/c/ BA dB G2|EA A<A B2 E2|c2 BA/B/ G[B,E] [B,2E2]:|
e>f gd B2 BG|A2 A>B dBBd|e>f ge B2 BG|A<A B>A G[B,E] [B,2E2]|
e>f gd B2 BG|A2 A>B dBBd|e>f ge ae gB|A<A B>A G[B,E] [B,2E2]||

